svg/color/drive.svg

<?xml version="1.0" encoding="UTF-8" ?>
<!DOCTYPE svg PUBLIC "-//W3C//DTD SVG 1.1//EN" "http://www.w3.org/Graphics/SVG/1.1/DTD/svg11.dtd">
<svg width="250pt" height="246pt" viewBox="0 0 250 246" version="1.1" xmlns="http://www.w3.org/2000/svg">
<g id="#ffffffff">
<path fill="#ffffff" opacity="1.00" d=" M 0.00 0.00 L 250.00 0.00 L 250.00 246.00 L 0.00 246.00 L 0.00 0.00 M 74.59 25.48 C 48.88 38.00 28.44 61.01 19.35 88.14 C 11.47 110.56 11.41 135.63 19.13 158.11 C 27.00 182.01 43.60 202.85 64.98 216.09 C 82.27 226.79 102.59 232.78 122.96 232.58 C 137.45 232.76 151.83 229.50 165.21 224.04 C 189.41 213.89 209.76 194.75 221.10 171.05 C 232.13 148.77 234.78 122.62 229.16 98.46 C 223.59 74.33 209.37 52.32 189.76 37.22 C 170.84 22.51 146.93 14.25 122.96 14.31 C 106.26 14.14 89.58 18.20 74.59 25.48 Z" />
<path fill="#ffffff" opacity="1.00" d=" M 98.25 55.03 C 108.79 51.22 120.12 50.05 131.26 50.91 C 136.31 52.11 141.44 53.01 146.35 54.74 C 163.55 60.61 178.30 73.32 186.62 89.49 C 194.96 105.17 196.71 123.96 192.47 141.11 C 187.87 159.47 175.53 175.70 159.09 185.05 C 152.62 188.86 145.43 191.19 138.24 193.20 C 119.44 196.78 99.20 193.54 83.19 182.81 C 66.27 171.79 54.36 153.34 51.55 133.32 C 49.43 121.34 51.14 108.88 55.28 97.51 C 62.46 77.97 78.64 62.01 98.25 55.03 M 68.21 99.20 C 66.59 103.11 64.70 107.27 65.37 111.62 C 66.14 113.97 68.98 113.58 70.93 113.71 C 80.31 113.66 89.69 113.45 99.07 113.23 C 100.89 112.93 103.30 113.18 104.37 111.35 C 106.90 107.85 109.97 104.56 114.08 102.94 C 117.86 101.06 122.15 101.36 126.24 101.31 C 129.48 102.34 132.90 103.21 135.58 105.43 C 138.24 107.40 139.99 110.28 142.41 112.49 C 146.17 113.63 150.14 113.26 154.00 113.40 C 161.65 113.43 169.30 113.92 176.94 113.59 C 179.27 113.78 181.03 111.27 180.42 109.10 C 174.98 83.25 150.10 63.35 123.72 63.43 C 100.20 62.59 77.35 77.61 68.21 99.20 M 114.28 125.78 C 115.48 129.56 119.27 131.74 123.11 131.84 C 127.91 131.38 132.29 127.15 131.69 122.12 C 131.75 117.64 127.83 114.60 123.92 113.37 C 117.66 112.95 111.46 119.65 114.28 125.78 M 161.04 126.80 C 155.25 127.76 149.30 128.05 143.70 129.87 C 142.10 131.63 141.18 133.87 139.74 135.75 C 137.26 139.19 133.14 141.46 131.91 145.74 C 128.91 154.86 130.13 164.64 128.86 174.03 C 128.59 176.13 128.43 178.42 129.75 180.24 C 132.50 181.29 135.55 180.66 138.34 180.05 C 149.62 176.97 160.10 170.67 167.80 161.83 C 176.19 151.77 182.08 138.80 181.52 125.52 C 174.66 125.01 167.82 125.89 161.04 126.80 M 63.65 128.85 C 65.65 148.59 78.23 166.99 96.12 175.66 C 102.19 178.53 108.73 181.39 115.61 180.67 C 117.85 174.19 115.60 167.23 115.62 160.56 C 115.55 153.29 115.19 144.83 109.42 139.59 C 106.33 136.89 103.90 133.54 102.14 129.85 C 95.53 128.15 88.74 127.40 82.00 126.50 C 76.34 125.79 70.63 125.02 64.92 125.45 C 63.83 126.34 63.40 127.47 63.65 128.85 Z" />
</g>
<g id="#0058afff">
<path fill="#0058af" opacity="1.00" d=" M 74.59 25.48 C 89.58 18.20 106.26 14.14 122.96 14.31 C 123.02 26.05 122.47 37.81 123.13 49.53 C 125.87 49.77 128.66 49.92 131.26 50.91 C 120.12 50.05 108.79 51.22 98.25 55.03 C 78.64 62.01 62.46 77.97 55.28 97.51 C 51.14 108.88 49.43 121.34 51.55 133.32 C 54.36 153.34 66.27 171.79 83.19 182.81 C 99.20 193.54 119.44 196.78 138.24 193.20 C 133.46 194.85 128.42 195.39 123.41 195.68 C 122.21 207.93 123.13 220.28 122.96 232.58 C 102.59 232.78 82.27 226.79 64.98 216.09 C 43.60 202.85 27.00 182.01 19.13 158.11 C 11.41 135.63 11.47 110.56 19.35 88.14 C 28.44 61.01 48.88 38.00 74.59 25.48 Z" />
<path fill="#0058af" opacity="1.00" d=" M 68.21 99.20 C 77.35 77.61 100.20 62.59 123.72 63.43 C 122.84 69.58 122.60 75.80 122.90 82.00 C 123.17 87.42 122.40 92.85 122.82 98.27 C 122.83 100.07 125.02 100.48 126.24 101.31 C 122.15 101.36 117.86 101.06 114.08 102.94 C 109.97 104.56 106.90 107.85 104.37 111.35 C 103.30 113.18 100.89 112.93 99.07 113.23 C 89.69 113.45 80.31 113.66 70.93 113.71 C 68.98 113.58 66.14 113.97 65.37 111.62 C 64.70 107.27 66.59 103.11 68.21 99.20 Z" />
<path fill="#0058af" opacity="1.00" d=" M 114.28 125.78 C 111.46 119.65 117.66 112.95 123.92 113.37 C 122.75 119.45 122.60 125.68 123.11 131.84 C 119.27 131.74 115.48 129.56 114.28 125.78 Z" />
<path fill="#0058af" opacity="1.00" d=" M 63.65 128.85 C 63.40 127.47 63.83 126.34 64.92 125.45 C 70.63 125.02 76.34 125.79 82.00 126.50 C 88.74 127.40 95.53 128.15 102.14 129.85 C 103.90 133.54 106.33 136.89 109.42 139.59 C 115.19 144.83 115.55 153.29 115.62 160.56 C 115.60 167.23 117.85 174.19 115.61 180.67 C 108.73 181.39 102.19 178.53 96.12 175.66 C 78.23 166.99 65.65 148.59 63.65 128.85 Z" />
</g>
<g id="#0065cfff">
<path fill="#0065cf" opacity="1.00" d=" M 122.96 14.31 C 146.93 14.25 170.84 22.51 189.76 37.22 C 209.37 52.32 223.59 74.33 229.16 98.46 C 234.78 122.62 232.13 148.77 221.10 171.05 C 209.76 194.75 189.41 213.89 165.21 224.04 C 151.83 229.50 137.45 232.76 122.96 232.58 C 123.13 220.28 122.21 207.93 123.41 195.68 C 128.42 195.39 133.46 194.85 138.24 193.20 C 145.43 191.19 152.62 188.86 159.09 185.05 C 175.53 175.70 187.87 159.47 192.47 141.11 C 196.71 123.96 194.96 105.17 186.62 89.49 C 178.30 73.32 163.55 60.61 146.35 54.74 C 141.44 53.01 136.31 52.11 131.26 50.91 C 128.66 49.92 125.87 49.77 123.13 49.53 C 122.47 37.81 123.02 26.05 122.96 14.31 Z" />
<path fill="#0065cf" opacity="1.00" d=" M 123.72 63.43 C 150.10 63.35 174.98 83.25 180.42 109.10 C 181.03 111.27 179.27 113.78 176.94 113.59 C 169.30 113.92 161.65 113.43 154.00 113.40 C 150.14 113.26 146.17 113.63 142.41 112.49 C 139.99 110.28 138.24 107.40 135.58 105.43 C 132.90 103.21 129.48 102.34 126.24 101.31 C 125.02 100.48 122.83 100.07 122.82 98.27 C 122.40 92.85 123.17 87.42 122.90 82.00 C 122.60 75.80 122.84 69.58 123.72 63.43 Z" />
<path fill="#0065cf" opacity="1.00" d=" M 123.92 113.37 C 127.83 114.60 131.75 117.64 131.69 122.12 C 132.29 127.15 127.91 131.38 123.11 131.84 C 122.60 125.68 122.75 119.45 123.92 113.37 Z" />
<path fill="#0065cf" opacity="1.00" d=" M 161.04 126.80 C 167.82 125.89 174.66 125.01 181.52 125.52 C 182.08 138.80 176.19 151.77 167.80 161.83 C 160.10 170.67 149.62 176.97 138.34 180.05 C 135.55 180.66 132.50 181.29 129.75 180.24 C 128.43 178.42 128.59 176.13 128.86 174.03 C 130.13 164.64 128.91 154.86 131.91 145.74 C 133.14 141.46 137.26 139.19 139.74 135.75 C 141.18 133.87 142.10 131.63 143.70 129.87 C 149.30 128.05 155.25 127.76 161.04 126.80 Z" />
</g>
</svg>

<?xml version="1.0" encoding="utf-8"?>
<!-- Generator: Adobe Illustrator 26.0.3, SVG Export Plug-In . SVG Version: 6.00 Build 0)  -->
<svg version="1.1" id="Layer_1" xmlns="http://www.w3.org/2000/svg" xmlns:xlink="http://www.w3.org/1999/xlink" x="0px" y="0px"
	 viewBox="0 0 250 246" style="enable-background:new 0 0 250 246;" xml:space="preserve">
<style type="text/css">
	.st0{fill:#FFFFFF;}
	.st1{fill:#0058AF;}
	.st2{fill:#0065CF;}
</style>
<g id="_x23_ffffffff">
	<path class="st0" d="M98.2,55c10.5-3.8,21.9-5,33-4.1c5.1,1.2,10.2,2.1,15.1,3.8c17.2,5.9,31.9,18.6,40.3,34.7
		c8.3,15.7,10.1,34.5,5.9,51.6c-4.6,18.4-16.9,34.6-33.4,43.9c-6.5,3.8-13.7,6.1-20.8,8.1c-18.8,3.6-39,0.3-55.1-10.4
		c-16.9-11-28.8-29.5-31.6-49.5c-2.1-12-0.4-24.4,3.7-35.8C62.5,78,78.6,62,98.2,55 M68.2,99.2c-1.6,3.9-3.5,8.1-2.8,12.4
		c0.8,2.3,3.6,2,5.6,2.1c9.4,0,18.8-0.3,28.1-0.5c1.8-0.3,4.2-0.1,5.3-1.9c2.5-3.5,5.6-6.8,9.7-8.4c3.8-1.9,8.1-1.6,12.2-1.6
		c3.2,1,6.7,1.9,9.3,4.1c2.7,2,4.4,4.8,6.8,7.1c3.8,1.1,7.7,0.8,11.6,0.9c7.6,0,15.3,0.5,22.9,0.2c2.3,0.2,4.1-2.3,3.5-4.5
		c-5.4-25.8-30.3-45.8-56.7-45.7C100.2,62.6,77.3,77.6,68.2,99.2 M114.3,125.8c1.2,3.8,5,6,8.8,6.1c4.8-0.5,9.2-4.7,8.6-9.7
		c0.1-4.5-3.9-7.5-7.8-8.8C117.7,112.9,111.5,119.7,114.3,125.8 M161,126.8c-5.8,1-11.7,1.2-17.3,3.1c-1.6,1.8-2.5,4-4,5.9
		c-2.5,3.4-6.6,5.7-7.8,10c-3,9.1-1.8,18.9-3.1,28.3c-0.3,2.1-0.4,4.4,0.9,6.2c2.8,1,5.8,0.4,8.6-0.2c11.3-3.1,21.8-9.4,29.5-18.2
		c8.4-10.1,14.3-23,13.7-36.3C174.7,125,167.8,125.9,161,126.8 M63.7,128.9c2,19.7,14.6,38.1,32.5,46.8c6.1,2.9,12.6,5.7,19.5,5
		c2.2-6.5,0-13.4,0-20.1c-0.1-7.3-0.4-15.7-6.2-21c-3.1-2.7-5.5-6.1-7.3-9.7c-6.6-1.7-13.4-2.5-20.1-3.4c-5.7-0.7-11.4-1.5-17.1-1.1
		C63.8,126.3,63.4,127.5,63.7,128.9z"/>
</g>
<g id="_x23_0058afff">
	<path class="st1" d="M74.6,25.5c15-7.3,31.7-11.3,48.4-11.2c0.1,11.7-0.5,23.5,0.2,35.2c2.7,0.2,5.5,0.4,8.1,1.4
		c-11.1-0.9-22.5,0.3-33,4.1c-19.6,7-35.8,22.9-43,42.5c-4.1,11.4-5.8,23.8-3.7,35.8c2.8,20,14.7,38.5,31.6,49.5
		c16,10.7,36.2,14,55.1,10.4c-4.8,1.7-9.8,2.2-14.8,2.5c-1.2,12.2-0.3,24.6-0.5,36.9c-20.4,0.2-40.7-5.8-58-16.5
		c-21.4-13.2-38-34.1-45.9-58c-7.7-22.5-7.7-47.6,0.2-70C28.4,61,48.9,38,74.6,25.5z"/>
	<path class="st1" d="M68.2,99.2c9.1-21.6,32-36.6,55.5-35.8c-0.9,6.2-1.1,12.4-0.8,18.6c0.3,5.4-0.5,10.8-0.1,16.3
		c0,1.8,2.2,2.2,3.4,3c-4.1,0.1-8.4-0.2-12.2,1.6c-4.1,1.6-7.2,4.9-9.7,8.4c-1.1,1.8-3.5,1.6-5.3,1.9c-9.4,0.2-18.8,0.4-28.1,0.5
		c-1.9-0.1-4.8,0.3-5.6-2.1C64.7,107.3,66.6,103.1,68.2,99.2z"/>
	<path class="st1" d="M114.3,125.8c-2.8-6.1,3.4-12.8,9.6-12.4c-1.2,6.1-1.3,12.3-0.8,18.5C119.3,131.7,115.5,129.6,114.3,125.8z"/>
	<path class="st1" d="M63.7,128.9c-0.2-1.4,0.2-2.5,1.3-3.4c5.7-0.4,11.4,0.3,17.1,1.1c6.7,0.9,13.5,1.6,20.1,3.4
		c1.8,3.7,4.2,7,7.3,9.7c5.8,5.2,6.1,13.7,6.2,21c0,6.7,2.2,13.6,0,20.1c-6.9,0.7-13.4-2.1-19.5-5C78.2,167,65.7,148.6,63.7,128.9z"
		/>
</g>
<g id="_x23_0065cfff">
	<path class="st2" d="M123,14.3c24-0.1,47.9,8.2,66.8,22.9c19.6,15.1,33.8,37.1,39.4,61.2c5.6,24.2,3,50.3-8.1,72.6
		c-11.3,23.7-31.7,42.8-55.9,53c-13.4,5.5-27.8,8.7-42.3,8.5c0.2-12.3-0.8-24.7,0.5-36.9c5-0.3,10.1-0.8,14.8-2.5
		c7.2-2,14.4-4.3,20.8-8.1c16.4-9.4,28.8-25.6,33.4-43.9c4.2-17.2,2.5-35.9-5.9-51.6c-8.3-16.2-23.1-28.9-40.3-34.7
		c-4.9-1.7-10-2.6-15.1-3.8c-2.6-1-5.4-1.1-8.1-1.4C122.5,37.8,123,26,123,14.3z"/>
	<path class="st2" d="M123.7,63.4c26.4-0.1,51.3,19.8,56.7,45.7c0.6,2.2-1.1,4.7-3.5,4.5c-7.6,0.3-15.3-0.2-22.9-0.2
		c-3.9-0.1-7.8,0.2-11.6-0.9c-2.4-2.2-4.2-5.1-6.8-7.1c-2.7-2.2-6.1-3.1-9.3-4.1c-1.2-0.8-3.4-1.2-3.4-3c-0.4-5.4,0.3-10.8,0.1-16.3
		C122.6,75.8,122.8,69.6,123.7,63.4z"/>
	<path class="st2" d="M123.9,113.4c3.9,1.2,7.8,4.3,7.8,8.8c0.6,5-3.8,9.3-8.6,9.7C122.6,125.7,122.8,119.4,123.9,113.4z"/>
	<path class="st2" d="M161,126.8c6.8-0.9,13.6-1.8,20.5-1.3c0.6,13.3-5.3,26.3-13.7,36.3c-7.7,8.8-18.2,15.1-29.5,18.2
		c-2.8,0.6-5.8,1.2-8.6,0.2c-1.3-1.8-1.2-4.1-0.9-6.2c1.3-9.4,0.1-19.2,3.1-28.3c1.2-4.3,5.3-6.6,7.8-10c1.4-1.9,2.4-4.1,4-5.9
		C149.3,128.1,155.2,127.8,161,126.8z"/>
</g>
</svg>
